!!!ONB: MCCC : IFC0054_02 : Extracted Monophonic Melody
!!!COM: Chopin, Frédéric
!!!OPR: Mazurkas
!!!OMV: 2
!!!SCT: Op.50
!!!ODT: 1841///
**kern
*thru
*staff1
*Ipiano
*clefG2
*k[f#c#]
*b:
*M3/4
*MM208
4dd
=1
12dd
12ee
12dd
4cc#
4b
=2
8a#
8gg
2ff#
=3
12dd
12ee
12dd
4cc#
4b
=4
8a
8g#
4f#
4r
=5
12b
12cc#
12b
4a
4g
=6
8f#
8ee
2dd
=7
12g
12a
12g
4f#
4e
=8
8d
8c#
4B
8r
8dd
=9
12dd
12ee
12dd
4cc#
4b
=10
8a#
16r
16gg
2ff#
=11
12dd
12ee
12dd
4cc#
4b
=12
8a
16r
16g#
4f#
4r
=13
12b
12cc#
12b
4a
4g
=14
8f#
16r
16ee
2dd
=15
12g
12a
12g
4f#
4e
=16
8d
16r
16c#
4B
4f#
=17
8e#
8f#
4g#
8a
8g#
=18
8f#
8g#
4a
8b
8a
=19
8g#
8a
4b
8cc#
8b
=20
8a
8b
4cc#
8dd#
8cc#
=21
8b#
8cc#
4dd#
8ee#
8dd#
=22
8cc#
8dd#
4ee#
4ff#
=23
8ee#
8ff#
4gg#
4aa
=24
2ff#
4f#
=25
8e#
8f#
4g#
8a
8g#
=26
8f#
8g#
4a
8b
8a
=27
8g#
8a
4b
8cc#
8b
=28
8a
8b
4cc#
8dd#
8cc#
=29
8b#
8cc#
4dd#
8ee#
8dd#
=30
8cc#
8dd#
4ee#
4ff#
=31
8.ee#
16ddd
4ccc#
8gg#
8aa
=32
2ff#
4ff#
=33
8ff#
8ee#
4ff#
4dd
=34
4cc#
2a
=35
8ff#
8ee#
4ff#
4dd
=36
4cc#
2a
=37
8ff#
8ee#
4ff#
4dd
=38
4cc#
2a
=39
8ff#
8ee#
4ff#
4dd
=40
4cc#
2a
=41
8ff#
8ee#
4ff#
4dd
=42
4cc#
2a
=43
8ff#
8ee#
4ff#
4dd
=44
4cc#
2a
=45
8ff#
8ee#
4ff#
4dd
=46
4cc#
2a
=47
8ff#
8ee#
4ff#
4dd
=48
4cc#
4a
4f#
=49
8e#
8f#
4g#
8a
8g#
=50
8f#
8g#
4a
8b
8a
=51
8g#
8a
4b
8cc#
8b
=52
8a
8b
4cc#
8dd#
8cc#
=53
8b#
8cc#
4dd#
8ee#
8dd#
=54
8cc#
8dd#
4ee#
4ff#
=55
8ee#
8ff#
4gg#
4aa
=56
2ff#
4f#
=57
8e#
8f#
4g#
8a
8g#
=58
8f#
8g#
4a
8b
8a
=59
8g#
8a
4b
8cc#
8b
=60
8a
8b
4cc#
8dd#
8cc#
=61
8b#
8cc#
4dd#
8ee#
8dd#
=62
8cc#
8dd#
4ee#
4ff#
=63
8.ee#
16ddd
4ccc#
8gg#
8aa
=64
4ff#
4fff#
4r
==
*-
